Icons/TM_Icons/more icons/computer-floppy3.svg

<?xml version='1.0' encoding='utf-8'?>
<ns0:svg xmlns:ns0="http://www.w3.org/2000/svg" version="1.1" viewBox="173.0 0.0 1480.0 1480.0" role="img" focusable="false" preserveAspectRatio="xMidYMid meet">
   <ns0:path fill="currentColor" d="M173 603v-1185c0 -27.3398 9.66699 -50.5 29 -69.5s42.667 -28.5 70 -28.5h1283c27.3398 0 50.5 9.5 69.5 28.5s28.5 42.1699 28.5 69.5v1283c0 27.333 -9.5 50.667 -28.5 70s-42.1699 29 -69.5 29h-1185zM864 307h-247v444h247v-444zM1259 751h296 c16.6699 0 29 -4.16699 37 -12.5s12 -20.5 12 -36.5v-1284c-0.00976562 -32.6699 -16.3398 -49 -49 -49h-148v592c0 27.335 -9.66992 50.668 -29 70c-19.3301 19.3359 -42.6699 29.0029 -70 29h-790c-27.333 0 -50.5 -9.66699 -69.5 -29s-28.5 -42.667 -28.5 -70v-592h-148 c-33.333 0.00976562 -50 16.3398 -50 49v1165l168 168h178v-444c0.00195312 -33.333 16.335 -50 49 -50h592c33.3398 0.000976562 50.0098 16.668 50 50v444zM1357 -631h-888v592c0.00292969 16.002 4.16895 28.168 12.5 36.5c8.33398 8.3418 20.5 12.5088 36.5 12.5l790 1 c32.6699 0 49 -16.667 49 -50v-592z" />
</ns0:svg>

<svg xmlns="http://www.w3.org/2000/svg" width="400" height="200" viewBox="-567 -680 2960 1480"><path fill="currentColor" d="M173 603V-582c0-27.34 9.667-50.5 29-69.5s42.667-28.5 70-28.5h1283c27.34 0 50.5 9.5 69.5 28.5s28.5 42.17 28.5 69.5V701q0 41-28.5 70c-28.5 29-42.17 29-69.5 29H370zm691-296H617v444h247zm395 444h296c16.67 0 29-4.167 37-12.5s12-20.5 12-36.5V-582c-.01-32.67-16.34-49-49-49h-148v592c0 27.335-9.67 50.668-29 70-19.33 19.336-42.67 29.003-70 29H518q-41 0-69.5-29C420 2 420-11.667 420-39v-592H272c-33.333.01-50 16.34-50 49V583l168 168h178V307q.003-50 49-50h592c33.34.001 50.01 16.668 50 50zm98-1382H469v592q.004 24.002 12.5 36.5Q494 10.013 518 10l790 1c32.67 0 49-16.667 49-50z"/></svg>
